<?xml version="1.0" encoding="UTF-8"?>
<map version="1.10" tiledversion="1.10.2" orientation="orthogonal" renderorder="right-down" width="40" height="25" tilewidth="32" tileheight="32" infinite="0" nextlayerid="3" nextobjectid="2">
 <tileset firstgid="1" source="tiles/world.tsx"/>
 <layer id="1" name="ground" width="40" height="25">
  <data encoding="csv">
  2,2,2,2,2,2,2,2,2,2,2,2,2,2,2,2,2,2,2,2,2,2,2,2,2,2,2,2,2,2,2,2,2,2,2,2,2,2,2,2,
  2,1,1,1,1,1,1,1,1,1,1,1,1,1,1,1,1,1,1,3,3,1,1,1,1,1,1,1,1,1,1,1,1,1,1,1,1,1,1,2,
  2,1,1,1,1,1,1,1,1,1,1,1,1,1,1,1,1,1,1,3,3,1,1,1,1,1,1,1,1,1,1,1,1,1,1,1,1,1,1,2,
  2,1,1,2,2,2,2,2,2,2,2,1,1,1,1,1,1,1,1,3,3,1,1,1,1,1,1,1,1,2,2,2,2,2,2,2,2,1,1,2,
  2,1,1,2,1,1,1,1,1,1,2,1,1,1,1,1,1,1,1,3,3,1,1,1,1,1,1,1,1,2,1,1,1,1,1,1,2,1,1,2,
  2,1,1,2,1,1,1,1,1,1,2,1,1,1,1,1,1,1,1,3,3,1,1,1,1,1,1,1,1,2,1,1,1,1,1,1,2,1,1,2,
  2,1,1,2,1,1,1,1,1,1,2,1,1,1,1,1,1,1,1,3,3,1,1,1,1,1,1,1,1,2,1,1,1,1,1,1,2,1,1,2,
  2,1,1,2,1,1,1,1,1,1,2,1,1,1,1,1,1,1,1,3,3,1,1,1,1,1,1,1,1,2,1,1,1,1,1,1,2,1,1,2,
  2,1,1,2,2,2,2,2,2,2,2,2,1,1,1,1,1,1,1,3,3,1,1,1,1,1,1,1,1,2,2,2,2,2,2,2,2,1,1,2,
  2,1,1,1,1,1,1,1,1,1,2,2,1,1,1,1,1,1,1,3,3,1,1,1,1,1,1,1,1,2,2,1,1,1,1,1,1,1,1,2,
  2,1,1,1,1,1,1,1,1,1,1,1,1,1,1,1,1,1,1,3,3,1,1,1,1,1,1,1,1,1,1,1,1,1,1,1,1,1,1,2,
  2,1,1,1,1,1,1,1,1,1,1,1,1,1,1,1,1,1,1,3,3,1,1,1,1,1,1,1,1,1,1,1,1,1,1,1,1,1,1,2,
  2,3,3,3,3,3,3,3,3,3,3,3,3,3,3,3,3,3,3,3,3,3,3,3,3,3,3,3,3,3,3,3,3,3,3,3,3,3,3,2,
  2,3,3,3,3,3,3,3,3,3,3,3,3,3,3,3,3,3,3,3,3,3,3,3,3,3,3,3,3,3,3,3,3,3,3,3,3,3,3,2,
  2,1,1,1,1,1,1,1,1,1,1,1,1,1,1,1,1,1,1,3,3,1,1,1,1,1,1,1,1,1,1,1,1,1,1,1,1,1,1,2,
  2,1,1,1,1,1,1,1,1,1,1,1,1,1,1,1,1,1,1,3,3,1,1,1,1,1,1,1,1,1,1,1,1,1,1,1,1,1,1,2,
  2,1,1,2,2,2,2,2,2,2,2,2,1,1,1,1,4,4,1,3,3,1,1,1,1,1,1,1,1,2,2,2,2,2,2,2,2,1,1,2,
  2,1,1,2,1,1,1,1,1,1,2,2,1,1,1,1,4,4,1,3,3,1,1,1,1,1,1,1,1,2,2,1,1,1,1,1,2,1,1,2,
  2,1,1,2,1,1,1,1,1,1,2,1,1,1,1,1,4,4,1,3,3,1,1,1,1,1,1,1,1,2,1,1,1,1,1,1,2,1,1,2,
  2,1,1,2,1,1,1,1,1,1,2,1,1,1,1,1,1,1,1,3,3,1,1,1,1,1,1,1,1,2,1,1,1,1,1,1,2,1,1,2,
  2,1,1,2,1,1,1,1,1,1,2,1,1,1,1,1,1,1,1,3,3,1,1,1,1,1,1,1,1,2,1,1,1,1,1,1,2,1,1,2,
  2,1,1,2,2,2,2,2,2,2,2,1,1,1,1,1,1,1,1,3,3,1,1,1,1,1,1,1,1,2,2,2,2,2,2,2,2,1,1,2,
  2,1,1,1,1,1,1,1,1,1,1,1,1,1,1,1,1,1,1,3,3,1,1,1,1,1,1,1,1,1,1,1,1,1,1,1,1,1,1,2,
  2,1,1,1,1,1,1,1,1,1,1,1,1,1,1,1,1,1,1,3,3,1,1,1,1,1,1,1,1,1,1,1,1,1,1,1,1,1,1,2,
  2,2,2,2,2,2,2,2,2,2,2,2,2,2,2,2,2,2,2,2,2,2,2,2,2,2,2,2,2,2,2,2,2,2,2,2,2,2,2,2
</data>
 </layer>
 <objectgroup id="2" name="shapes">
  <object id="1" name="spawn-courtyard" x="544" y="352" width="192" height="160"/>
 </objectgroup>
</map>
